src/images/trading_app/purchase/trade_types/ic_digit_even_light.svg

<?xml version="1.0" encoding="UTF-8"?>
<svg width="16px" height="16px" viewBox="0 0 16 16" version="1.1" xmlns="http://www.w3.org/2000/svg" xmlns:xlink="http://www.w3.org/1999/xlink">
    <!-- Generator: Sketch 50.2 (55047) - http://www.bohemiancoding.com/sketch -->
    <title>icons/trade types/light/even-odd/ic-light-digit-even</title>
    <desc>Created with Sketch.</desc>
    <defs></defs>
    <g id="icons/trade-types/light/even-odd/ic-light-digit-even" stroke="none" stroke-width="1" fill="none" fill-rule="evenodd">
        <g id="binary/icons/Digit-Even/-Digit-Even-Off">
            <rect id="Rectangle-18" x="0" y="0" width="16" height="16"></rect>
            <path d="M4.5,11.5 L11.5,11.5 L11.5,4.5 L4.5,4.5 L4.5,11.5 Z M12.5,3.5 L12.5,12.5 L3.5,12.5 L3.5,3.5 L12.5,3.5 Z" id="Rectangle-5" fill="#2A3052" fill-rule="nonzero"></path>
            <path d="M2.69775391,9.5 L0.217285156,9.5 L0.217285156,8.96289062 L1.35986328,7.76171875 C1.64144021,7.44107913 1.78222656,7.18636162 1.78222656,6.99755859 C1.78222656,6.84456304 1.74886101,6.7281905 1.68212891,6.6484375 C1.6153968,6.5686845 1.51855532,6.52880859 1.39160156,6.52880859 C1.26627542,6.52880859 1.16455117,6.5821121 1.08642578,6.6887207 C1.00830039,6.79532931 0.969238281,6.92838462 0.969238281,7.08789062 L0.144042969,7.08789062 C0.144042969,6.86979058 0.198567163,6.66837657 0.307617188,6.48364258 C0.416667212,6.29890858 0.568032886,6.15446016 0.76171875,6.05029297 C0.955404614,5.94612578 1.1718738,5.89404297 1.41113281,5.89404297 C1.79524932,5.89404297 2.09106342,5.98274651 2.29858398,6.16015625 C2.50610455,6.33756599 2.60986328,6.5922835 2.60986328,6.92431641 C2.60986328,7.06429106 2.58382187,7.20060155 2.53173828,7.33325195 C2.47965469,7.46590236 2.39868219,7.60506112 2.28881836,7.75073242 C2.17895453,7.89640372 2.00195435,8.09130737 1.7578125,8.33544922 L1.29882812,8.86523438 L2.69775391,8.86523438 L2.69775391,9.5 Z" id="2" fill="#2A3052"></path>
            <path d="M9.10717773,8.1940918 L9.5769043,8.1940918 L9.5769043,9.01928711 L9.10717773,9.01928711 L9.10717773,10 L8.03759766,10 L8.03759766,9.01928711 L6.25073242,9.01928711 L6.18725586,8.36547852 L8.03759766,5.38842773 L8.03759766,5.37890625 L9.10717773,5.37890625 L9.10717773,8.1940918 Z M7.20605469,8.1940918 L8.03759766,8.1940918 L8.03759766,6.7722168 L7.97094727,6.88012695 L7.20605469,8.1940918 Z" id="4" fill="#2A3052"></path>
            <path d="M15.2045898,5.89404297 L15.2045898,6.54101562 L15.1679688,6.54101562 C14.86035,6.54101562 14.607667,6.61466398 14.4099121,6.76196289 C14.2121572,6.9092618 14.090495,7.11393098 14.0449219,7.37597656 C14.2304697,7.19368398 14.4648423,7.10253906 14.7480469,7.10253906 C15.0556656,7.10253906 15.3006176,7.21484263 15.4829102,7.43945312 C15.6652027,7.66406362 15.7563477,7.95865703 15.7563477,8.32324219 C15.7563477,8.5494803 15.7030442,8.75699775 15.5964355,8.94580078 C15.4898269,9.13460381 15.3409026,9.28230741 15.1496582,9.38891602 C14.9584138,9.49552462 14.7464204,9.54882812 14.5136719,9.54882812 C14.261392,9.54882812 14.035971,9.49145565 13.8374023,9.37670898 C13.6388336,9.26196232 13.4842128,9.09798284 13.3735352,8.88476562 C13.2628575,8.67154841 13.2058919,8.42578264 13.2026367,8.14746094 L13.2026367,7.81787109 C13.2026367,7.45165833 13.2811678,7.12247867 13.4382324,6.83032227 C13.595297,6.53816586 13.8194972,6.30908286 14.1108398,6.14306641 C14.4021824,5.97704995 14.7252586,5.89404297 15.0800781,5.89404297 L15.2045898,5.89404297 Z M14.4624023,7.73242188 C14.3533523,7.73242188 14.2622074,7.75764949 14.1889648,7.80810547 C14.1157223,7.85856145 14.0611981,7.92040979 14.0253906,7.99365234 L14.0253906,8.24023438 C14.0253906,8.68945537 14.1808253,8.9140625 14.4916992,8.9140625 C14.6170254,8.9140625 14.7215979,8.85791072 14.8054199,8.74560547 C14.889242,8.63330022 14.9311523,8.49251387 14.9311523,8.32324219 C14.9311523,8.14908767 14.8884282,8.00708063 14.8029785,7.8972168 C14.7175289,7.78735297 14.6040046,7.73242188 14.4624023,7.73242188 Z" id="6" fill="#2A3052"></path>
        </g>
    </g>
</svg>

<svg width="16" height="16" viewBox="0 0 16 16" xmlns="http://www.w3.org/2000/svg"><title>icons/trade types/light/even-odd/ic-light-digit-even</title><g fill="none" fill-rule="evenodd"><path d="M0 0h16v16H0z"/><path d="M4.5 11.5h7v-7h-7v7zm8-8v9h-9v-9h9z" fill="#2A3052" fill-rule="nonzero"/><path d="M2.698 9.5H.218v-.537L1.36 7.762c.281-.32.422-.576.422-.764 0-.153-.033-.27-.1-.35-.067-.08-.163-.12-.29-.12a.362.362 0 0 0-.306.16.657.657 0 0 0-.117.4H.144A1.167 1.167 0 0 1 .762 6.05c.193-.104.41-.156.65-.156.383 0 .68.089.887.266.207.178.31.432.31.764 0 .14-.025.277-.077.41a1.793 1.793 0 0 1-.243.417 6.12 6.12 0 0 1-.531.584l-.46.53h1.4V9.5zM9.107 8.194h.47v.825h-.47V10h-1.07v-.98H6.252l-.064-.655 1.85-2.977v-.01h1.07v2.816zm-1.9 0h.83V6.772l-.066.108-.765 1.314zM15.205 5.894v.647h-.037c-.308 0-.56.074-.758.221a.933.933 0 0 0-.365.614.962.962 0 0 1 .703-.273c.308 0 .553.112.735.336.182.225.273.52.273.884 0 .226-.053.434-.16.623a1.141 1.141 0 0 1-.446.443c-.192.107-.404.16-.636.16-.253 0-.478-.058-.677-.172a1.183 1.183 0 0 1-.463-.492 1.62 1.62 0 0 1-.171-.738v-.33c0-.365.078-.695.235-.987.157-.292.381-.52.673-.687.291-.166.614-.249.97-.249h.124zm-.743 1.838a.47.47 0 0 0-.437.262v.246c0 .45.156.674.467.674.125 0 .23-.056.313-.168a.687.687 0 0 0 .126-.423.674.674 0 0 0-.128-.426.41.41 0 0 0-.34-.165z" fill="#2A3052"/></g></svg>
